src/view/frontend/web/svg/heroicons/solid/chat-alt-2.svg

<svg viewBox="0 0 20 20" fill="currentColor" xmlns="http://www.w3.org/2000/svg">
<path d="M2 5C2 3.89543 2.89543 3 4 3H11C12.1046 3 13 3.89543 13 5V9C13 10.1046 12.1046 11 11 11H9L6 14V11H4C2.89543 11 2 10.1046 2 9V5Z" />
<path d="M15 7V9C15 11.2091 13.2091 13 11 13H9.82843L8.06173 14.7667C8.34154 14.9156 8.66091 15 9 15H11L14 18V15H16C17.1046 15 18 14.1046 18 13V9C18 7.89543 17.1046 7 16 7H15Z" />
</svg>

<svg xmlns="http://www.w3.org/2000/svg" fill="currentColor" viewBox="0 0 20 20"><path d="M2 5a2 2 0 0 1 2-2h7a2 2 0 0 1 2 2v4a2 2 0 0 1-2 2H9l-3 3v-3H4a2 2 0 0 1-2-2V5Z"/><path d="M15 7v2a4 4 0 0 1-4 4H9.828l-1.766 1.767c.28.149.599.233.938.233h2l3 3v-3h2a2 2 0 0 0 2-2V9a2 2 0 0 0-2-2h-1Z"/></svg>
